src/assets/icons/6-icon-expressJS.svg

<svg width="65" height="64" viewBox="0 0 65 64" fill="none" xmlns="http://www.w3.org/2000/svg">
<g clip-path="url(#clip0_408_852)">
    <path d="M64.7593 49.5898C62.4313 50.1818 60.9913 49.6158 59.6993 47.6758L50.5113 34.9638L49.1833 33.2038L38.4533 47.7178C37.2273 49.4638 35.9413 50.2238 33.6533 49.6058L47.3933 31.1618L34.6013 14.5018C36.8013 14.0738 38.3213 14.2918 39.6713 16.2618L49.2013 29.1318L58.8013 16.3318C60.0313 14.5858 61.3533 13.9218 63.5613 14.5658L58.6013 21.1418L51.8813 29.8918C51.0813 30.8918 51.1913 31.5758 51.9273 32.5418L64.7593 49.5898ZM0.775277 30.8538L1.89928 25.3258C4.95928 14.3858 17.4993 9.83977 26.1473 16.5998C31.2013 20.5758 32.4573 26.1998 32.2073 32.4998H3.71928C3.29128 43.8398 11.4533 50.6838 21.8593 47.1918C25.5093 45.9658 27.6593 43.1078 28.7353 39.5318C29.2813 37.7398 30.1853 37.4598 31.8693 37.9718C31.0093 42.4438 29.0693 46.1798 24.9693 48.5178C18.8433 52.0178 10.0993 50.8858 5.49928 46.0218C2.75928 43.1998 1.62728 39.6238 1.11928 35.7998C1.03928 35.1678 0.879277 34.5658 0.759277 33.9598C0.769944 32.9251 0.775277 31.8904 0.775277 30.8558V30.8538ZM3.77128 30.0938H29.5153C29.3473 21.8938 24.2413 16.0698 17.2633 16.0198C9.60328 15.9598 4.10328 21.6458 3.77128 30.0938Z" fill="white"/>
</g>
<defs>
<clipPath id="clip0_408_852">
<rect width="64" height="64" fill="white" transform="translate(0.759277)"/>
</clipPath>
</defs>
</svg>

<svg xmlns="http://www.w3.org/2000/svg" width="65" height="64" fill="none"><g clip-path="url(#a)"><path fill="#fff" d="M64.76 49.59c-2.33.6-3.77.03-5.06-1.91L50.5 34.96l-1.33-1.76-10.73 14.52c-1.22 1.74-2.5 2.5-4.8 1.89L47.4 31.16 34.6 14.5c2.2-.43 3.72-.2 5.07 1.76l9.53 12.87 9.6-12.8c1.23-1.74 2.55-2.4 4.76-1.76l-4.96 6.57-6.72 8.75c-.8 1-.69 1.69.05 2.65L64.76 49.6ZM.78 30.85l1.12-5.52C4.96 14.39 17.5 9.84 26.15 16.6c5.05 3.98 6.3 9.6 6.06 15.9H3.7c-.42 11.34 7.74 18.18 18.15 14.7 3.65-1.23 5.8-4.1 6.88-7.67.54-1.79 1.45-2.07 3.13-1.56-.86 4.47-2.8 8.21-6.9 10.55-6.13 3.5-14.87 2.37-19.47-2.5-2.74-2.82-3.87-6.4-4.38-10.22-.08-.63-.24-1.23-.36-1.84l.02-3.1Zm3-.76h25.74c-.17-8.2-5.28-14.02-12.26-14.07C9.6 15.96 4.1 21.65 3.77 30.09Z"/></g><defs><clipPath id="a"><path fill="#fff" d="M.76 0h64v64h-64z"/></clipPath></defs></svg>
